X:1
T:St. Aidan, 888
T:F. N. Grey, before 1890
T:St. Aidan, 888
T:Public Domain
C:F. N. Grey, before 1890
Z:Public Domain
%%score ( 1 2 ) ( 3 4 )
L:1/8
M:3/4
K:Eb
V:1 treble 
V:2 treble 
V:3 bass 
V:4 bass 
V:1
 [EG]2 | [EG]4 [EG]2 | [EA]4 [FA]2 | [Ad]4 [Af]2 | [Ge]4 [Ge]2 | (e2 d2) [Ac]2 | [GB]4 [EG]2 | %7
 (F2 G2) [AB]2 | [GB]4 [EG]2 | G2 A2 [EB]2 | [Ec]4 [EG]2 | [EG]4 [DF]2 | E4 |] %13
V:2
 x2 | x6 | x6 | x6 | x6 | A4 x2 | x6 | B4 x2 | x6 | E4 x2 | x6 | x6 | E4 |] %13
V:3
 [E,B,]2 | (B,3 C) [E,_D]2 | [A,C]4 [A,C]2 | B,4 [B,D]2 | [E,E]4 [E,B,]2 | (C3 B,) (CD) | %6
 [E,E]4 [E,E]2 | (D2 E2) [B,,F]2 | [E,E]4 [E,B,]2 | (_D2 C2) [G,B,]2 | A,2 C2 [E,B,]2 | %11
 B,4 [A,,B,]2 | [E,G,]4 |] %13
V:4
 x2 | E,4 x2 | x6 | B,4 x2 | x6 | E,4 E,2 | x6 | B,,4 x2 | x6 | E,4 x2 | A,4 x2 | B,4 x2 | x4 |] %13

